v/0.4.11/design-resources/icons/wf_icons/envelope.svg

<?xml version="1.0" encoding="utf-8"?>
<!-- Generated by IcoMoon.io -->
<!DOCTYPE svg PUBLIC "-//W3C//DTD SVG 1.1//EN" "http://www.w3.org/Graphics/SVG/1.1/DTD/svg11.dtd">
<svg version="1.1" xmlns="http://www.w3.org/2000/svg" xmlns:xlink="http://www.w3.org/1999/xlink" width="512" height="512" viewBox="0 0 512 512">
<g>
</g>
	<path d="M32 96v320h448v-320h-448zM407.471 128l-150.726 93.284-152.216-93.284h302.942zM448 384h-384v-243.367l192.818 118.237 191.182-118.237v243.367z" fill="#595959" />
</svg>

<svg xmlns="http://www.w3.org/2000/svg" width="512" height="512" viewBox="0 0 512 512"><path stroke="#449FDB" d="M0 0"/><path d="M32 96v320h448V96H32zm375.47 32l-150.725 93.284L104.53 128h302.94zM448 384H64V140.633L256.818 258.87 448 140.633V384z" fill="#595959"/></svg>
